<?xml version="1.0" encoding="UTF-8"?>
<map version="1.10" tiledversion="1.11.2" orientation="isometric" renderorder="right-down" width="30" height="30" tilewidth="64" tileheight="32" infinite="0" nextlayerid="3" nextobjectid="45">
 <properties>
  <property name="Background" value="custom"/>
  <property name="Background Animation" value="/server/assets/custom/backgrounds/ChikiTown/Chiki.animation"/>
  <property name="Background Texture" value="/server/assets/custom/backgrounds/ChikiTown/Chiki.png"/>
  <property name="Background Vel X" value="0.6"/>
  <property name="Background Vel Y" value="0.5"/>
  <property name="Mystery Data Maximum" type="int" value="4"/>
  <property name="Mystery Data Minimum" type="int" value="3"/>
  <property name="Name" value="ChikiTwn2"/>
  <property name="Song" value="/server/assets/music/BN2 Internet.ogg"/>
 </properties>
 <tileset firstgid="1" source="../assets/tiles/portpanels.tsx"/>
 <tileset firstgid="9" source="../assets/tiles/Netopia_Tileset_directional_paths.tsx"/>
 <tileset firstgid="45" source="../assets/tiles/Den_Exits.tsx"/>
 <tileset firstgid="63" source="../assets/tiles/Screen2.tsx"/>
 <tileset firstgid="66" source="../assets/tiles/GreenMysteryData.tsx"/>
 <tileset firstgid="74" source="../assets/tiles/exe45_trees.tsx"/>
 <layer id="1" name="Tile Layer 1" width="30" height="30">
  <data encoding="csv">
0,0,0,0,0,0,0,0,0,0,0,0,0,0,0,0,0,0,0,0,0,0,0,0,0,0,0,0,0,0,
0,0,0,0,0,0,0,7,7,7,0,0,60,0,0,0,0,0,0,0,0,0,0,0,0,0,0,0,0,0,
0,0,0,0,0,0,0,0,7,0,0,0,7,0,7,7,7,0,0,0,0,0,0,0,0,7,7,7,0,0,
0,0,0,0,0,7,7,7,7,0,7,7,7,0,7,7,7,7,7,7,7,7,7,7,7,7,7,7,0,0,
0,0,0,0,0,0,0,0,7,0,7,0,0,0,7,7,7,0,0,0,0,0,0,0,0,7,7,7,0,0,
0,0,7,7,7,7,0,0,7,0,7,7,7,0,0,0,0,0,0,0,0,0,0,0,0,0,0,0,0,0,
0,0,7,0,0,7,0,0,7,0,0,0,7,7,7,0,0,0,0,0,0,0,0,0,0,0,0,0,0,0,
0,0,7,0,0,7,0,7,7,7,7,0,7,0,7,7,0,0,0,0,0,0,0,0,0,0,0,0,0,0,
0,0,7,0,0,7,0,7,0,0,7,7,7,0,0,7,0,0,0,0,0,0,0,0,0,0,0,0,0,0,
0,0,7,0,0,7,0,7,0,0,0,0,0,0,0,0,0,0,0,0,0,0,0,0,0,0,0,0,0,0,
0,0,7,0,0,7,0,7,7,7,7,7,7,7,7,7,0,0,0,0,0,0,0,0,0,0,0,0,0,0,
0,0,7,0,0,7,0,0,30,30,0,0,0,7,0,7,7,7,0,7,7,7,7,7,7,7,7,0,0,0,
0,0,7,7,0,7,7,7,7,7,7,7,0,7,0,0,0,30,0,7,0,7,7,7,7,0,7,0,0,0,
0,0,0,7,0,0,0,0,30,30,0,7,7,7,0,0,0,30,0,7,0,0,0,0,0,0,7,0,0,0,
0,7,7,7,0,0,0,0,30,30,0,0,0,0,0,0,0,30,0,7,7,7,0,0,0,0,7,0,0,0,
0,0,0,7,7,7,7,7,7,7,7,7,0,0,0,7,7,7,0,0,0,7,7,0,0,0,7,0,0,0,
0,0,0,0,0,7,7,0,0,0,0,7,7,7,7,7,0,7,7,0,0,7,0,0,0,0,7,0,0,0,
0,0,0,0,0,7,0,0,0,0,0,0,0,0,7,0,0,7,7,7,7,7,0,0,0,0,7,0,0,0,
0,0,0,0,0,0,0,0,0,0,0,0,0,0,7,0,0,30,0,0,0,0,0,0,7,0,7,0,0,0,
0,0,0,0,0,0,0,0,7,7,7,0,0,0,7,0,0,30,0,7,7,7,0,0,7,0,7,0,0,0,
0,0,0,0,0,0,0,0,7,7,7,7,7,7,7,0,0,30,0,7,7,7,7,7,7,7,7,0,0,0,
0,0,0,0,0,0,0,0,7,7,7,0,7,0,0,0,0,30,0,7,7,0,0,0,0,0,7,0,0,0,
0,0,0,0,0,0,0,0,0,0,0,0,0,0,0,0,0,30,0,0,7,0,0,0,0,0,7,7,0,0,
0,0,0,0,0,0,0,0,0,0,0,0,0,0,0,0,0,30,0,0,7,0,0,0,0,0,0,7,0,0,
0,0,0,0,0,0,0,0,0,0,0,0,0,0,0,0,0,30,0,0,7,0,0,0,0,0,0,7,0,0,
0,0,0,0,0,0,0,0,0,0,0,0,0,0,0,0,0,7,0,0,7,0,0,0,0,0,0,7,0,0,
0,0,0,0,0,0,0,0,0,0,0,0,0,0,0,0,0,7,7,7,7,7,7,7,7,7,7,7,0,0,
0,0,0,0,0,0,0,0,0,0,0,0,0,0,0,0,0,0,0,0,0,0,0,7,7,7,7,7,0,0,
0,0,0,0,0,0,0,0,0,0,0,0,0,0,0,0,0,0,0,0,0,0,0,7,0,0,0,0,0,0,
0,0,0,0,0,0,0,0,0,0,0,0,0,0,0,0,0,0,0,0,0,0,0,0,0,0,0,0,0,0
</data>
 </layer>
 <objectgroup id="2" name="Object Layer 1">
  <object id="1" name="LOOOK" gid="63" x="785.5" y="84.5" width="44" height="71">
   <properties>
    <property name="Flavor" value="There shoould be a telepoter here too get to Amazon like net"/>
   </properties>
  </object>
  <object id="2" name="look" gid="63" x="233" y="659" width="44" height="71">
   <properties>
    <property name="Flavor" value="teleporter"/>
   </properties>
  </object>
  <object id="3" name="lookk" gid="63" x="464" y="118" width="44" height="71">
   <properties>
    <property name="Flavor" value="teleporter"/>
   </properties>
  </object>
  <object id="5" name="Chiki2" type="Radius Warp" x="400" y="64">
   <properties>
    <property name="Activation Radius" value="0.6"/>
    <property name="Arrival Animation" value="arrow_up_right_in"/>
    <property name="Leave Animation" value="arrow_up_right_out"/>
    <property name="Target Area" value="Chichi"/>
    <property name="Target Object" value="54"/>
   </properties>
   <point/>
  </object>
  <object id="6" name="Lea" type="NPC" x="336" y="112">
   <properties>
    <property name="Asset Name" value="female-navi-exe6_yellow"/>
    <property name="Dialogue Type" value="first"/>
    <property name="Direction" value="Down Right"/>
    <property name="Text 1">Hi, you heading to VastTravler? I herd they are closed because of a virus outbreak! Must suck for the customers...
</property>
    <property name="Wait Time" value="2"/>
   </properties>
   <point/>
  </object>
  <object id="7" name="MO000" type="Mystery Option" x="-54.5" y="631.5">
   <properties>
    <property name="Amount" type="int" value="1"/>
    <property name="Description" value="money"/>
    <property name="Name" value="money"/>
    <property name="Once" type="bool" value="false"/>
    <property name="Price" type="int" value="12"/>
    <property name="Type" value="money"/>
   </properties>
   <point/>
  </object>
  <object id="8" name="MO001" type="Mystery Option" x="-46.5" y="623.5">
   <properties>
    <property name="Amount" type="int" value="10"/>
    <property name="Description" value="money"/>
    <property name="Name" value="money"/>
    <property name="Once" type="bool" value="false"/>
    <property name="Price" type="int" value="23"/>
    <property name="Type" value="money"/>
   </properties>
   <point/>
  </object>
  <object id="9" name="MO002" type="Mystery Option" x="-38.5" y="615.5">
   <properties>
    <property name="Amount" type="int" value="15"/>
    <property name="Description" value="money"/>
    <property name="Name" value="money"/>
    <property name="Once" type="bool" value="false"/>
    <property name="Price" type="int" value="34"/>
    <property name="Type" value="money"/>
   </properties>
   <point/>
  </object>
  <object id="10" name="MO003" type="Mystery Option" x="-30.5" y="607.5">
   <properties>
    <property name="Amount" type="int" value="25"/>
    <property name="Description" value="money"/>
    <property name="Name" value="money"/>
    <property name="Once" type="bool" value="false"/>
    <property name="Price" type="int" value="45"/>
    <property name="Type" value="money"/>
   </properties>
   <point/>
  </object>
  <object id="11" name="MO004" type="Mystery Option" x="-22.5" y="599.5">
   <properties>
    <property name="Amount" type="int" value="47"/>
    <property name="Description" value="money"/>
    <property name="Name" value="money"/>
    <property name="Once" type="bool" value="false"/>
    <property name="Price" type="int" value="56"/>
    <property name="Type" value="money"/>
   </properties>
   <point/>
  </object>
  <object id="12" name="MO005" type="Mystery Option" x="-14.5" y="591.5">
   <properties>
    <property name="Amount" type="int" value="400"/>
    <property name="Description" value="money"/>
    <property name="Name" value="money"/>
    <property name="Once" type="bool" value="false"/>
    <property name="Price" type="int" value="67"/>
    <property name="Type" value="money"/>
   </properties>
   <point/>
  </object>
  <object id="13" name="MO006" type="Mystery Option" x="-6.5" y="583.5">
   <properties>
    <property name="Amount" type="int" value="69"/>
    <property name="Description" value="money"/>
    <property name="Name" value="money"/>
    <property name="Once" type="bool" value="false"/>
    <property name="Price" type="int" value="78"/>
    <property name="Type" value="money"/>
   </properties>
   <point/>
  </object>
  <object id="14" name="MO007" type="Mystery Option" x="1.5" y="575.5">
   <properties>
    <property name="Amount" type="int" value="91"/>
    <property name="Description" value="money"/>
    <property name="Name" value="money"/>
    <property name="Once" type="bool" value="false"/>
    <property name="Price" type="int" value="89"/>
    <property name="Type" value="money"/>
   </properties>
   <point/>
  </object>
  <object id="15" name="MO008" type="Mystery Option" x="9.5" y="567.5">
   <properties>
    <property name="Amount" type="int" value="99"/>
    <property name="Description" value="money"/>
    <property name="Name" value="money"/>
    <property name="Once" type="bool" value="false"/>
    <property name="Price" type="int" value="90"/>
    <property name="Type" value="money"/>
   </properties>
   <point/>
  </object>
  <object id="16" name="MO009" type="Mystery Option" x="17.5" y="559.5">
   <properties>
    <property name="Amount" type="int" value="140"/>
    <property name="Description" value="money"/>
    <property name="Name" value="money"/>
    <property name="Once" type="bool" value="false"/>
    <property name="Price" type="int" value="70"/>
    <property name="Type" value="money"/>
   </properties>
   <point/>
  </object>
  <object id="17" name="MO013" type="Mystery Option" x="-6.5" y="631.5">
   <properties>
    <property name="Next 1" type="object" value="7"/>
    <property name="Next 2" type="object" value="7"/>
    <property name="Next 3" type="object" value="7"/>
    <property name="Next 4" type="object" value="8"/>
    <property name="Next 5" type="object" value="8"/>
    <property name="Next 6" type="object" value="8"/>
    <property name="Next 7" type="object" value="9"/>
    <property name="Next 8" type="object" value="9"/>
    <property name="Next 9" type="object" value="10"/>
    <property name="Once" type="bool" value="false"/>
    <property name="Type" value="random"/>
   </properties>
   <point/>
  </object>
  <object id="18" name="MO014" type="Mystery Option" x="1.5" y="623.5">
   <properties>
    <property name="Next 1" type="object" value="7"/>
    <property name="Next 2" type="object" value="7"/>
    <property name="Next 3" type="object" value="7"/>
    <property name="Next 4" type="object" value="9"/>
    <property name="Next 5" type="object" value="10"/>
    <property name="Next 6" type="object" value="10"/>
    <property name="Next 7" type="object" value="11"/>
    <property name="Next 8" type="object" value="11"/>
    <property name="Next 9" type="object" value="11"/>
    <property name="Once" type="bool" value="false"/>
    <property name="Type" value="random"/>
   </properties>
   <point/>
  </object>
  <object id="19" name="MO015" type="Mystery Option" x="9.5" y="615.5">
   <properties>
    <property name="Next 1" type="object" value="8"/>
    <property name="Next 2" type="object" value="8"/>
    <property name="Next 3" type="object" value="10"/>
    <property name="Next 4" type="object" value="10"/>
    <property name="Next 5" type="object" value="11"/>
    <property name="Next 6" type="object" value="11"/>
    <property name="Next 7" type="object" value="13"/>
    <property name="Next 8" type="object" value="15"/>
    <property name="Next 9" type="object" value="15"/>
    <property name="Once" type="bool" value="false"/>
    <property name="Type" value="random"/>
   </properties>
   <point/>
  </object>
  <object id="20" name="MO016" type="Mystery Option" x="17.5" y="607.5">
   <properties>
    <property name="Next 1" type="object" value="9"/>
    <property name="Next 2" type="object" value="9"/>
    <property name="Next 3" type="object" value="9"/>
    <property name="Next 4" type="object" value="13"/>
    <property name="Next 5" type="object" value="13"/>
    <property name="Next 6" type="object" value="14"/>
    <property name="Next 7" type="object" value="14"/>
    <property name="Next 8" type="object" value="15"/>
    <property name="Next 9" type="object" value="16"/>
    <property name="Once" type="bool" value="false"/>
    <property name="Type" value="random"/>
   </properties>
   <point/>
  </object>
  <object id="21" name="MO017" type="Mystery Option" x="25.5" y="599.5">
   <properties>
    <property name="Next 1" type="object" value="17"/>
    <property name="Next 2" type="object" value="17"/>
    <property name="Next 3" type="object" value="17"/>
    <property name="Next 4" type="object" value="17"/>
    <property name="Next 5" type="object" value="18"/>
    <property name="Next 6" type="object" value="18"/>
    <property name="Next 7" type="object" value="18"/>
    <property name="Next 8" type="object" value="19"/>
    <property name="Next 9" type="object" value="16"/>
    <property name="Once" type="bool" value="false"/>
    <property name="Type" value="random"/>
   </properties>
   <point/>
  </object>
  <object id="22" name="MO018" type="Mystery Option" x="33.5" y="591.5">
   <properties>
    <property name="Next 1" type="object" value="18"/>
    <property name="Next 2" type="object" value="18"/>
    <property name="Next 3" type="object" value="18"/>
    <property name="Next 4" type="object" value="18"/>
    <property name="Next 5" type="object" value="19"/>
    <property name="Next 6" type="object" value="19"/>
    <property name="Next 7" type="object" value="19"/>
    <property name="Next 8" type="object" value="20"/>
    <property name="Next 9" type="object" value="16"/>
    <property name="Once" type="bool" value="false"/>
    <property name="Type" value="random"/>
   </properties>
   <point/>
  </object>
  <object id="23" type="Mystery Datum" gid="66" x="560" y="848" width="14" height="43">
   <properties>
    <property name="Next 1" type="object" value="21"/>
    <property name="Type" value="random"/>
   </properties>
  </object>
  <object id="24" type="Mystery Datum" gid="66" x="48" y="464" width="14" height="43">
   <properties>
    <property name="Next 1" type="object" value="21"/>
    <property name="Type" value="random"/>
   </properties>
  </object>
  <object id="25" type="Mystery Datum" gid="66" x="112" y="400" width="14" height="43">
   <properties>
    <property name="Next 1" type="object" value="22"/>
    <property name="Type" value="random"/>
   </properties>
  </object>
  <object id="26" type="Mystery Datum" gid="66" x="336" y="624" width="14" height="43">
   <properties>
    <property name="Next 1" type="object" value="22"/>
    <property name="Type" value="random"/>
   </properties>
  </object>
  <object id="27" type="Mystery Datum" gid="66" x="400" y="688" width="14" height="43">
   <properties>
    <property name="Next 1" type="object" value="22"/>
    <property name="Type" value="random"/>
   </properties>
  </object>
  <object id="28" type="Mystery Datum" gid="66" x="784" y="848" width="14" height="43">
   <properties>
    <property name="Next 1" type="object" value="21"/>
    <property name="Type" value="random"/>
   </properties>
  </object>
  <object id="29" type="Mystery Datum" gid="66" x="496" y="272" width="14" height="43">
   <properties>
    <property name="Next 1" type="object" value="21"/>
    <property name="Type" value="random"/>
   </properties>
  </object>
  <object id="30" type="Mystery Datum" gid="66" x="240" y="48" width="14" height="43">
   <properties>
    <property name="Next 1" type="object" value="21"/>
    <property name="Type" value="random"/>
   </properties>
  </object>
  <object id="31" type="Mystery Datum" gid="66" x="464" y="208" width="14" height="43">
   <properties>
    <property name="Next 1" type="object" value="21"/>
    <property name="Type" value="random"/>
   </properties>
  </object>
  <object id="32" type="Mystery Datum" gid="66" x="304" y="48" width="14" height="43">
   <properties>
    <property name="Next 1" type="object" value="21"/>
    <property name="Type" value="random"/>
   </properties>
  </object>
  <object id="33" type="Mystery Datum" gid="66" x="464" y="144" width="14" height="43">
   <properties>
    <property name="Next 1" type="object" value="22"/>
    <property name="Type" value="random"/>
   </properties>
  </object>
  <object id="34" type="Mystery Datum" gid="66" x="176" y="176" width="14" height="43">
   <properties>
    <property name="Next 1" type="object" value="21"/>
    <property name="Type" value="random"/>
   </properties>
  </object>
  <object id="35" type="Mystery Datum" gid="66" x="496" y="368" width="14" height="43">
   <properties>
    <property name="Next 1" type="object" value="21"/>
    <property name="Type" value="random"/>
   </properties>
  </object>
  <object id="36" type="Mystery Datum" gid="66" x="176" y="560" width="14" height="43">
   <properties>
    <property name="Next 1" type="object" value="22"/>
    <property name="Type" value="random"/>
   </properties>
  </object>
  <object id="37" type="Mystery Datum" gid="66" x="432" y="432" width="14" height="43">
   <properties>
    <property name="Next 1" type="object" value="22"/>
    <property name="Type" value="random"/>
   </properties>
  </object>
  <object id="38" type="Mystery Datum" gid="66" x="784" y="592" width="14" height="43">
   <properties>
    <property name="Next 1" type="object" value="22"/>
    <property name="Type" value="random"/>
   </properties>
  </object>
  <object id="39" type="Mystery Datum" gid="66" x="272" y="112" width="14" height="43">
   <properties>
    <property name="Next 1" type="object" value="22"/>
    <property name="Type" value="random"/>
   </properties>
  </object>
  <object id="40" name="Dex" type="NPC" x="112" y="496">
   <properties>
    <property name="Asset Name" value="normal-navi-bn4_red"/>
    <property name="Dialogue Type" value="first"/>
    <property name="Direction" value="Down Right"/>
    <property name="Next Waypoint 1" type="object" value="41"/>
    <property name="Text 1" value="I wanna live here but irs pretty full..."/>
    <property name="Wait Time" value="0"/>
   </properties>
   <point/>
  </object>
  <object id="41" name="Waypoint 0" type="Waypoint" x="304" y="496">
   <properties>
    <property name="Direction" value="Up Left"/>
    <property name="Next Waypoint 1" type="object" value="42"/>
    <property name="Next Waypoint 2" type="object" value="40"/>
    <property name="Wait Time" value="0"/>
    <property name="Waypoint Type" value="random"/>
   </properties>
   <point/>
  </object>
  <object id="42" name="Waypoint 1" type="Waypoint" x="376" y="496">
   <properties>
    <property name="Direction" value="Up Left"/>
    <property name="Next Waypoint 2" type="object" value="40"/>
    <property name="Wait Time" value="3"/>
   </properties>
   <point/>
  </object>
  <object id="43" name="Huru" type="NPC" x="240" y="240">
   <properties>
    <property name="Asset Name" value="female-navi-exe6_yellow"/>
    <property name="Dialogue Type" value="first"/>
    <property name="Direction" value="Up Right"/>
    <property name="Text 1" value="Wich way was it..."/>
    <property name="Wait Time" value="2"/>
   </properties>
   <point/>
  </object>
  <object id="44" gid="74" x="848" y="880" width="64" height="80">
   <properties>
    <property name="Flavor" value="This tree look's on par with the real world's trees."/>
   </properties>
  </object>
 </objectgroup>
</map>
