<?xml version="1.0" encoding="UTF-8"?>
<map version="1.10" tiledversion="1.11.2" orientation="isometric" renderorder="right-down" width="40" height="20" tilewidth="64" tileheight="32" infinite="0" nextlayerid="3" nextobjectid="13">
 <properties>
  <property name="Background" value="custom"/>
  <property name="Background Animation" value="/server/assets/custom/backgrounds/ChikiTown/Chiki.animation"/>
  <property name="Background Texture" value="/server/assets/custom/backgrounds/ChikiTown/Chiki.png"/>
  <property name="Background Vel X" value="0.6"/>
  <property name="Background Vel Y" value="0.5"/>
  <property name="Mystery Data Maximum" type="int" value="6"/>
  <property name="Mystery Data Minimum" type="int" value="3"/>
  <property name="Name" value="ChikiTwn5"/>
  <property name="Song" value="/server/assets/music/BN2 Internet.ogg"/>
 </properties>
 <tileset firstgid="1" source="../assets/tiles/portpanels.tsx"/>
 <tileset firstgid="9" source="../assets/tiles/Netopia_Tileset_directional_paths.tsx"/>
 <tileset firstgid="45" source="../assets/tiles/Den_Exits.tsx"/>
 <tileset firstgid="63" source="../assets/tiles/Quadragon Warp.tsx"/>
 <tileset firstgid="75" source="../assets/tiles/exe45_trees.tsx"/>
 <layer id="1" name="Tile Layer 1" width="40" height="20">
  <data encoding="csv">
0,0,0,0,0,0,0,0,0,0,0,0,0,0,0,0,0,0,0,0,0,0,0,0,0,0,0,0,0,0,0,0,0,0,0,0,0,0,0,0,
0,0,0,0,0,0,0,0,0,0,0,0,0,0,0,0,0,0,0,0,0,0,0,0,0,0,0,0,0,0,0,0,0,0,0,0,0,0,0,0,
0,0,0,0,0,0,0,0,0,0,0,0,0,0,0,0,0,0,0,0,0,0,0,0,0,0,0,0,7,0,0,0,0,0,0,7,0,0,0,0,
0,0,0,0,0,0,0,0,0,0,0,0,7,0,0,0,0,0,0,7,0,0,0,0,0,0,0,7,7,7,0,0,0,0,7,7,7,0,0,0,
0,0,0,0,0,0,0,0,0,0,0,7,7,7,0,0,0,0,7,7,7,0,0,0,0,0,7,7,7,7,7,7,7,7,7,7,7,7,0,0,
0,0,0,0,0,0,0,0,0,0,7,7,7,7,7,7,7,7,7,7,7,7,0,0,0,0,0,7,7,7,0,0,0,0,7,7,7,0,0,0,
0,0,0,0,7,0,0,0,0,0,0,7,7,7,0,0,0,0,7,7,7,0,0,0,0,0,0,0,7,0,0,0,0,0,0,7,0,0,0,0,
0,0,0,7,7,7,0,0,0,0,0,0,7,0,0,0,0,0,0,7,0,0,0,0,0,0,0,0,7,0,0,0,0,0,0,7,0,0,0,0,
0,0,7,7,7,7,7,0,0,0,0,0,7,0,0,0,0,0,0,7,0,0,0,0,0,0,0,0,7,0,0,0,0,0,0,7,0,0,0,0,
0,0,0,7,7,7,0,0,0,0,0,0,7,0,0,0,0,0,0,7,24,24,24,24,24,24,24,24,7,0,0,0,0,0,0,7,0,0,0,0,
0,0,0,0,7,0,0,0,0,0,0,0,7,24,24,24,24,24,24,7,0,0,0,0,0,0,0,0,7,0,0,0,0,0,0,7,0,0,0,0,
0,0,0,0,7,0,0,0,0,0,0,0,7,0,0,0,0,0,0,7,0,0,0,0,0,0,0,0,7,0,0,0,0,0,0,7,0,0,0,0,
0,0,0,7,7,7,0,0,0,0,0,7,7,7,0,0,0,0,0,7,0,0,0,0,0,0,0,0,7,0,0,0,0,0,0,7,0,0,0,0,
0,0,7,7,7,7,7,7,7,7,7,7,7,7,7,0,0,0,0,7,0,0,0,0,0,0,0,0,7,24,24,24,24,24,24,7,0,0,0,0,
0,0,0,7,7,7,0,0,0,0,0,7,7,7,0,0,0,0,0,7,0,0,0,0,0,0,0,0,7,0,0,0,0,0,0,7,0,0,0,0,
0,0,0,0,7,0,0,0,0,0,0,0,7,0,0,0,0,0,7,7,7,0,0,0,0,0,0,7,7,7,0,0,0,0,0,7,0,0,0,0,
0,0,0,0,7,0,0,0,0,0,0,0,0,0,0,0,0,7,7,7,7,7,7,7,7,7,7,7,7,7,7,0,0,0,0,7,0,0,0,0,
0,0,0,0,7,0,0,0,0,0,0,0,0,0,0,0,0,0,7,7,7,0,0,0,0,0,0,7,7,7,0,0,0,0,0,7,0,0,0,0,
0,0,0,0,57,0,0,0,0,0,0,0,0,0,0,0,0,0,0,7,0,0,0,0,0,0,0,0,7,0,0,0,0,0,0,57,0,0,0,0,
0,0,0,0,0,0,0,0,0,0,0,0,0,0,0,0,0,0,0,0,0,0,0,0,0,0,0,0,0,0,0,0,0,0,0,0,0,0,0,0
</data>
 </layer>
 <objectgroup id="2" name="Object Layer 1">
  <object id="1" name="Chiki4" type="Radius Warp" x="144" y="576">
   <properties>
    <property name="Activation Radius" value="0.6"/>
    <property name="Arrival Animation" value="arrow_down_left_in"/>
    <property name="Leave Animation" value="arrow_down_left_out"/>
    <property name="Target Area" value="Chichi4"/>
    <property name="Target Object" value="4"/>
   </properties>
   <point/>
  </object>
  <object id="2" name="Hood" type="Radius Warp" x="1136" y="576">
   <properties>
    <property name="Activation Radius" value="0.6"/>
    <property name="Arrival Animation" value="arrow_down_left_in"/>
    <property name="Leave Animation" value="arrow_down_left_out"/>
    <property name="Target Area" value="Hood1"/>
    <property name="Target Object" value="12"/>
   </properties>
   <point/>
  </object>
  <object id="4" gid="75" x="144" y="432" width="64" height="80">
   <properties>
    <property name="Flavor" value="This tree look's on par with the real world's trees."/>
   </properties>
  </object>
  <object id="5" gid="75" x="400" y="432" width="64" height="80">
   <properties>
    <property name="Flavor" value="This tree look's on par with the real world's trees."/>
   </properties>
  </object>
  <object id="6" gid="75" x="144" y="272" width="64" height="80">
   <properties>
    <property name="Flavor" value="This tree look's on par with the real world's trees."/>
   </properties>
  </object>
  <object id="7" gid="75" x="400" y="176" width="64" height="80">
   <properties>
    <property name="Flavor" value="This tree look's on par with the real world's trees."/>
   </properties>
  </object>
  <object id="8" gid="75" x="624" y="176" width="64" height="80">
   <properties>
    <property name="Flavor" value="This tree look's on par with the real world's trees."/>
   </properties>
  </object>
  <object id="9" gid="75" x="624" y="528" width="64" height="80">
   <properties>
    <property name="Flavor" value="This tree look's on par with the real world's trees."/>
   </properties>
  </object>
  <object id="10" gid="75" x="912" y="528" width="64" height="80">
   <properties>
    <property name="Flavor" value="This tree look's on par with the real world's trees."/>
   </properties>
  </object>
  <object id="11" gid="75" x="912" y="144" width="64" height="80">
   <properties>
    <property name="Flavor" value="This tree look's on par with the real world's trees."/>
   </properties>
  </object>
  <object id="12" gid="75" x="1136" y="144" width="64" height="80">
   <properties>
    <property name="Flavor" value="This tree look's on par with the real world's trees."/>
   </properties>
  </object>
 </objectgroup>
</map>
