<?xml version="1.0" encoding="UTF-8"?>
<map version="1.10" tiledversion="1.11.2" orientation="isometric" renderorder="right-down" width="23" height="40" tilewidth="64" tileheight="32" infinite="0" nextlayerid="3" nextobjectid="87">
 <properties>
  <property name="Background" value="custom"/>
  <property name="Background Animation" value=""/>
  <property name="Background Texture" value="/server/assets/custom/backgrounds/Mall/Main.png"/>
  <property name="Background Vel X" value="0.2"/>
  <property name="Background Vel Y" value="0"/>
  <property name="Name" value="Mall 2"/>
  <property name="Song" value="/server/assets/music/BN2 Internet.ogg"/>
 </properties>
 <tileset firstgid="1" source="../assets/tiles/portpanels.tsx"/>
 <tileset firstgid="9" source="../assets/tiles/Quadragon Warp.tsx"/>
 <tileset firstgid="21" source="../assets/tiles/Den_Exits.tsx"/>
 <tileset firstgid="39" source="../assets/tiles/ZeroAccountTileset.tsx"/>
 <tileset firstgid="73" source="../assets/tiles/BigFountain.tsx"/>
 <tileset firstgid="74" source="../assets/tiles/Screen2.tsx"/>
 <tileset firstgid="77" source="../assets/tiles/GreenMysteryData.tsx"/>
 <layer id="1" name="Tile Layer 1" width="23" height="40">
  <data encoding="csv">
0,0,0,0,0,0,0,0,0,0,0,0,0,0,0,0,0,0,0,0,0,0,0,
0,0,0,0,0,0,0,0,0,0,0,0,0,0,0,0,0,0,0,0,0,0,0,
0,0,0,0,0,0,0,0,0,0,0,39,0,0,0,0,0,0,0,0,0,0,0,
0,0,0,0,0,0,0,0,0,0,39,39,39,0,0,0,0,0,0,0,0,0,0,
0,0,0,0,0,0,0,0,0,0,39,41,41,0,0,0,0,0,0,0,0,0,0,
0,0,0,0,0,40,40,47,0,0,39,40,39,0,0,39,39,39,0,0,0,0,0,
0,0,0,0,0,40,40,39,39,40,39,40,40,39,39,40,40,39,0,0,0,0,0,
0,0,0,0,0,39,39,40,0,0,39,41,40,0,0,40,41,41,0,0,0,0,0,
0,0,0,0,0,0,0,0,0,0,47,40,40,0,0,0,0,0,0,0,0,0,0,
0,0,0,0,0,0,0,0,0,0,41,39,39,0,0,0,0,0,0,0,0,0,0,
0,0,0,0,0,0,0,0,0,47,41,41,41,47,0,0,0,0,0,0,0,0,0,
0,0,0,0,0,0,0,0,0,47,39,41,39,47,0,0,0,0,0,0,0,0,0,
0,0,0,0,0,0,0,0,0,47,39,41,41,47,0,0,0,0,0,0,0,0,0,
0,0,0,0,0,0,0,0,0,47,39,41,40,47,0,0,0,0,0,0,0,0,0,
0,0,0,0,0,0,0,0,0,47,50,49,49,47,0,0,0,0,0,0,0,0,0,
0,0,0,0,0,0,0,0,0,47,40,49,41,47,0,0,0,0,0,0,0,0,0,
0,0,0,0,0,0,0,0,0,47,39,39,39,47,0,0,0,0,0,0,0,0,0,
0,0,0,0,0,0,0,0,47,47,47,40,41,47,47,0,0,0,0,0,0,0,0,
0,0,0,0,0,39,40,40,47,47,39,50,47,47,47,39,39,40,0,0,0,0,0,
0,0,0,0,0,40,39,40,39,39,39,39,39,39,39,39,39,39,0,0,0,0,0,
0,0,0,0,0,39,39,40,47,47,39,39,39,47,47,40,40,40,0,0,0,0,0,
0,0,0,0,0,0,0,0,47,47,39,39,39,47,47,0,0,0,0,0,0,0,0,
0,0,0,0,0,0,0,0,0,47,39,47,40,47,0,0,0,0,0,0,0,0,0,
0,0,0,0,0,0,0,0,0,47,39,41,39,47,0,0,0,0,0,0,0,0,0,
0,0,0,0,0,0,0,0,0,47,39,41,39,47,0,0,0,0,0,0,0,0,0,
0,0,0,0,0,0,0,0,0,47,39,50,41,47,0,0,0,0,0,0,0,0,0,
0,0,0,0,0,0,0,0,0,47,39,50,39,47,0,0,0,0,0,0,0,0,0,
0,0,0,0,0,0,0,0,0,47,43,41,39,47,0,0,0,0,0,0,0,0,0,
0,0,0,0,0,0,0,0,0,47,40,41,39,47,0,0,0,0,0,0,0,0,0,
0,0,0,0,0,0,0,0,0,47,39,50,39,47,0,0,0,0,0,0,0,0,0,
0,0,0,0,0,0,0,0,0,0,39,47,40,0,0,0,0,0,0,0,0,0,0,
0,0,0,0,0,0,0,0,0,0,39,47,39,0,0,0,0,0,0,0,0,0,0,
0,0,0,0,0,50,39,39,0,0,39,40,43,0,0,39,39,47,0,0,0,0,0,
0,0,0,0,0,39,39,39,39,40,39,39,39,39,39,39,39,39,0,0,0,0,0,
0,0,0,0,0,39,39,40,0,0,39,43,39,0,0,40,40,40,0,0,0,0,0,
0,0,0,0,0,0,0,0,0,0,39,39,39,0,0,0,0,0,0,0,0,0,0,
0,0,0,0,0,0,0,0,0,0,50,39,39,0,0,0,0,0,0,0,0,0,0,
0,0,0,0,0,0,0,0,0,0,0,39,0,0,0,0,0,0,0,0,0,0,0,
0,0,0,0,0,0,0,0,0,0,0,33,0,0,0,0,0,0,0,0,0,0,0,
0,0,0,0,0,0,0,0,0,0,0,0,0,0,0,0,0,0,0,0,0,0,0
</data>
 </layer>
 <objectgroup id="2" name="Object Layer 1">
  <object id="1" name="Jelly Junkies" type="Custom Warp" gid="9" x="200" y="1064" width="64" height="36">
   <properties>
    <property name="Direction" value="Up Right"/>
    <property name="Target Area" value="porttown2"/>
    <property name="Target Object" value="239"/>
   </properties>
  </object>
  <object id="2" name="AirShoes lockers" type="Custom Warp" gid="9" x="512" y="1056" width="64" height="36">
   <properties>
    <property name="Direction" value="Up Right"/>
    <property name="Target Area" value="porttown2"/>
    <property name="Target Object" value="239"/>
   </properties>
  </object>
  <object id="3" name="Flaves Curry" type="Custom Warp" gid="9" x="200" y="616" width="64" height="36">
   <properties>
    <property name="Direction" value="Up Right"/>
    <property name="Target Area" value="porttown2"/>
    <property name="Target Object" value="239"/>
   </properties>
  </object>
  <object id="4" name="FootBombers" type="Custom Warp" gid="9" x="512" y="608" width="64" height="36">
   <properties>
    <property name="Direction" value="Up Right"/>
    <property name="Target Area" value="porttown2"/>
    <property name="Target Object" value="239"/>
   </properties>
  </object>
  <object id="5" name="Vanilla's" type="Custom Warp" gid="9" x="512" y="192" width="64" height="36">
   <properties>
    <property name="Direction" value="Up Right"/>
    <property name="Target Area" value="Vanilla"/>
    <property name="Target Object" value="1"/>
   </properties>
  </object>
  <object id="6" name="Belle's Tacos" type="Custom Warp" gid="9" x="200" y="200" width="64" height="36">
   <properties>
    <property name="Direction" value="Up Right"/>
    <property name="Target Area" value="Belle Tacos"/>
    <property name="Target Object" value="1"/>
   </properties>
  </object>
  <object id="8" name="Prog-945" type="NPC" x="400" y="112">
   <properties>
    <property name="Asset Name" value="prog"/>
    <property name="Dialogue Type" value="first"/>
    <property name="Direction" value="Down Right"/>
    <property name="Text 1" value="HEY, YOU BETTER BE OBEYING THE LAW!"/>
    <property name="Wait Time" value="2"/>
   </properties>
   <point/>
  </object>
  <object id="9" name="Prog-488" type="NPC" x="336" y="112">
   <properties>
    <property name="Asset Name" value="prog"/>
    <property name="Dialogue Type" value="first"/>
    <property name="Direction" value="Down Right"/>
    <property name="Text 1">HELLO
</property>
    <property name="Wait Time" value="2"/>
   </properties>
   <point/>
  </object>
  <object id="10" name="EJ" type="NPC" x="400" y="1168">
   <properties>
    <property name="Asset Name" value="female-navi-exe5_lime"/>
    <property name="Dialogue Type" value="first"/>
    <property name="Direction" value="Up Right"/>
    <property name="Next Waypoint 1" type="object" value="14"/>
    <property name="Text 1" value="I dropped my darn pen somewhere..."/>
    <property name="Wait Time" value="0"/>
   </properties>
   <point/>
  </object>
  <object id="11" name="Waypoint 1W" type="Waypoint" x="336" y="1016">
   <properties>
    <property name="Direction" value="Up Right"/>
    <property name="Next Waypoint 2" type="object" value="12"/>
    <property name="Wait Time" value="0"/>
   </properties>
   <point/>
  </object>
  <object id="12" name="Waypoint 2W" type="Waypoint" x="336" y="752">
   <properties>
    <property name="Direction" value="Down Right"/>
    <property name="Next Waypoint 3" type="object" value="24"/>
    <property name="Wait Time" value="0"/>
   </properties>
   <point/>
  </object>
  <object id="13" name="Waypoint 1E" type="Waypoint" x="400" y="800">
   <properties>
    <property name="Direction" value="Up Left"/>
    <property name="Next Waypoint 2" type="object" value="16"/>
    <property name="Wait Time" value="0"/>
   </properties>
   <point/>
  </object>
  <object id="14" name="Waypoint 0" type="Waypoint" x="400" y="1016">
   <properties>
    <property name="Direction" value="Down Left"/>
    <property name="Next Waypoint 1" type="object" value="11"/>
    <property name="Next Waypoint 2" type="object" value="13"/>
    <property name="Wait Time" value="0"/>
    <property name="Waypoint Type" value="random"/>
   </properties>
   <point/>
  </object>
  <object id="15" name="Waypoint 5S" type="Waypoint" x="336" y="1168">
   <properties>
    <property name="Direction" value="Down Right"/>
    <property name="Next Waypoint 2" type="object" value="10"/>
    <property name="Wait Time" value="0"/>
   </properties>
   <point/>
  </object>
  <object id="16" name="Waypoint 6S" type="Waypoint" x="336" y="800">
   <properties>
    <property name="Direction" value="Up Right"/>
    <property name="Next Waypoint 2" type="object" value="15"/>
    <property name="Wait Time" value="0"/>
   </properties>
   <point/>
  </object>
  <object id="24" name="Waypoint 4S" type="Waypoint" x="400" y="752">
   <properties>
    <property name="Direction" value="Up Right"/>
    <property name="Next Waypoint 2" type="object" value="10"/>
    <property name="Wait Time" value="0"/>
   </properties>
   <point/>
  </object>
  <object id="25" name="Mall1" type="Radius Warp" x="368" y="1216">
   <properties>
    <property name="Activation Radius" value="0.6"/>
    <property name="Arrival Animation" value="arrow_down_left_in"/>
    <property name="Leave Animation" value="arrow_down_left_out"/>
    <property name="Target Area" value="Mall1"/>
    <property name="Target Object" value="1"/>
   </properties>
   <point/>
  </object>
  <object id="26" gid="73" x="352" y="616" width="224" height="116">
   <properties>
    <property name="Flavor" value="That's one big fountain, I wonder who made it?"/>
   </properties>
  </object>
  <object id="27" name="Nalala" type="NPC" x="240" y="592">
   <properties>
    <property name="Asset Name" value="female-navi-exe6_yellow"/>
    <property name="Dialogue Type" value="first"/>
    <property name="Direction" value="Down Left"/>
    <property name="Text 1" value="What a big fountain!"/>
    <property name="Wait Time" value="2"/>
   </properties>
   <point/>
  </object>
  <object id="28" gid="74" x="272" y="912" width="44" height="71">
   <properties>
    <property name="Flavor" value="Taco"/>
   </properties>
  </object>
  <object id="31" gid="74" x="272" y="848" width="44" height="71">
   <properties>
    <property name="Flavor" value="Taco"/>
   </properties>
  </object>
  <object id="32" gid="74" x="272" y="784" width="44" height="71">
   <properties>
    <property name="Flavor" value="Taco"/>
   </properties>
  </object>
  <object id="33" gid="74" x="448" y="936" width="44" height="71">
   <properties>
    <property name="Flavor" value="Taco"/>
   </properties>
  </object>
  <object id="34" gid="74" x="448" y="872" width="44" height="71">
   <properties>
    <property name="Flavor" value="Taco"/>
   </properties>
  </object>
  <object id="35" gid="74" x="440" y="792" width="44" height="71">
   <properties>
    <property name="Flavor" value="Taco"/>
   </properties>
  </object>
  <object id="36" gid="74" x="272" y="520" width="44" height="71">
   <properties>
    <property name="Flavor" value="Taco"/>
   </properties>
  </object>
  <object id="37" gid="74" x="272" y="464" width="44" height="71">
   <properties>
    <property name="Flavor" value="Taco"/>
   </properties>
  </object>
  <object id="38" gid="74" x="272" y="408" width="44" height="71">
   <properties>
    <property name="Flavor" value="Taco"/>
   </properties>
  </object>
  <object id="39" gid="74" x="448" y="528" width="44" height="71">
   <properties>
    <property name="Flavor" value="Taco"/>
   </properties>
  </object>
  <object id="40" gid="74" x="448" y="472" width="44" height="71">
   <properties>
    <property name="Flavor" value="Taco"/>
   </properties>
  </object>
  <object id="41" gid="74" x="448" y="416" width="44" height="71">
   <properties>
    <property name="Flavor" value="Taco"/>
   </properties>
  </object>
  <object id="42" name="Curve" type="NPC" x="360" y="1160">
   <properties>
    <property name="Asset Name" value="female-navi-exe5_purple"/>
    <property name="Dialogue Type" value="first"/>
    <property name="Direction" value="Up Right"/>
    <property name="Next Waypoint 1" type="object" value="43"/>
    <property name="Text 1" value="Where is he?! We are late!"/>
    <property name="Wait Time" value="0"/>
   </properties>
   <point/>
  </object>
  <object id="43" name="Waypoint 0" type="Waypoint" x="360" y="1144">
   <properties>
    <property name="Direction" value="Down Left"/>
    <property name="Next Waypoint 1" type="object" value="44"/>
    <property name="Next Waypoint 2" type="object" value="42"/>
    <property name="Wait Time" value="0"/>
    <property name="Waypoint Type" value="random"/>
   </properties>
   <point/>
  </object>
  <object id="44" name="Waypoint 1" type="Waypoint" x="360" y="1032">
   <properties>
    <property name="Direction" value="Down Left"/>
    <property name="Next Waypoint 2" type="object" value="42"/>
    <property name="Wait Time" value="3"/>
   </properties>
   <point/>
  </object>
  <object id="45" name="Wyver" type="NPC" x="494.5" y="1103.5">
   <properties>
    <property name="Asset Name" value="male-navi-exe4_pink"/>
    <property name="Dialogue Type" value="first"/>
    <property name="Direction" value="Up Right"/>
    <property name="Text 1" value="I wonder if I could open a shop here... I'd get so much exposure!"/>
    <property name="Wait Time" value="2"/>
   </properties>
   <point/>
  </object>
  <object id="46" name="Ula" type="NPC" x="384" y="1064">
   <properties>
    <property name="Asset Name" value="female-navi-exe6_yellow"/>
    <property name="Dialogue Type" value="first"/>
    <property name="Direction" value="Up Right"/>
    <property name="Next Waypoint 1" type="object" value="47"/>
    <property name="Text 1" value="The coffee at Vanilla's is so good! Why dont more navis go there?"/>
    <property name="Wait Time" value="0"/>
   </properties>
   <point/>
  </object>
  <object id="47" name="Waypoint 0" type="Waypoint" x="384" y="1016">
   <properties>
    <property name="Direction" value="Down Left"/>
    <property name="Next Waypoint 1" type="object" value="48"/>
    <property name="Next Waypoint 2" type="object" value="46"/>
    <property name="Wait Time" value="0"/>
    <property name="Waypoint Type" value="random"/>
   </properties>
   <point/>
  </object>
  <object id="48" name="Waypoint 1" type="Waypoint" x="384" y="936">
   <properties>
    <property name="Direction" value="Down Left"/>
    <property name="Next Waypoint 2" type="object" value="46"/>
    <property name="Wait Time" value="3"/>
   </properties>
   <point/>
  </object>
  <object id="49" name="Dran" type="NPC" x="248" y="1040">
   <properties>
    <property name="Asset Name" value="female-navi-exe4_orange"/>
    <property name="Dialogue Type" value="first"/>
    <property name="Direction" value="Down Right"/>
    <property name="Text 1" value="It's very busy today,  I wonder what's up?"/>
    <property name="Wait Time" value="2"/>
   </properties>
   <point/>
  </object>
  <object id="50" name="Bub" type="NPC" x="304" y="944">
   <properties>
    <property name="Asset Name" value="normal-navi-bn4_bad"/>
    <property name="Dialogue Type" value="first"/>
    <property name="Direction" value="Down Right"/>
    <property name="Next Waypoint 1" type="object" value="51"/>
    <property name="Text 1" value="Hm? Why am I here? I need stuff that you cant really get in the undernet. I ain't gonna blow something up, get off my case."/>
    <property name="Wait Time" value="2"/>
   </properties>
   <point/>
  </object>
  <object id="51" name="Waypoint 1" type="Waypoint" x="432" y="944">
   <properties>
    <property name="Direction" value="Down Right"/>
    <property name="Next Waypoint 1" type="object" value="50"/>
    <property name="Wait Time" value="2"/>
   </properties>
   <point/>
  </object>
  <object id="52" name="Hane" type="NPC" x="336" y="1104">
   <properties>
    <property name="Asset Name" value="female-navi-exe6_pink"/>
    <property name="Dialogue Type" value="first"/>
    <property name="Direction" value="Down Right"/>
    <property name="Next Waypoint 1" type="object" value="53"/>
    <property name="Text 1" value="Howdy!"/>
    <property name="Wait Time" value="2"/>
   </properties>
   <point/>
  </object>
  <object id="53" name="Waypoint 1" type="Waypoint" x="400" y="1104">
   <properties>
    <property name="Direction" value="Down Right"/>
    <property name="Next Waypoint 1" type="object" value="52"/>
    <property name="Wait Time" value="2"/>
   </properties>
   <point/>
  </object>
  <object id="54" name="Grub" type="NPC" x="336" y="976">
   <properties>
    <property name="Asset Name" value="male-navi-exe6_teal"/>
    <property name="Dialogue Type" value="first"/>
    <property name="Direction" value="Down Right"/>
    <property name="Next Waypoint 1" type="object" value="55"/>
    <property name="Text 1" value="Hey! I'm walkin' here!"/>
    <property name="Waypoint Type" value="first"/>
   </properties>
   <point/>
  </object>
  <object id="55" name="Waypoint 1" type="Waypoint" x="400" y="976">
   <properties>
    <property name="Direction" value="Down Left"/>
    <property name="Next Waypoint 1" type="object" value="54"/>
    <property name="Wait Time" value="2"/>
   </properties>
   <point/>
  </object>
  <object id="64" name="Whirl" type="NPC" x="264" y="696">
   <properties>
    <property name="Asset Name" value="normal-navi-bn4_brown"/>
    <property name="Dialogue Type" value="first"/>
    <property name="Direction" value="Down Left"/>
    <property name="Next Waypoint 1" type="object" value="65"/>
    <property name="Text 1" value="I can do this all day!... No really, I can."/>
    <property name="Wait Time" value="0"/>
   </properties>
   <point/>
  </object>
  <object id="65" name="Waypoint 1" type="Waypoint" x="472" y="696">
   <properties>
    <property name="Direction" value="Down Left"/>
    <property name="Next Waypoint 1" type="object" value="66"/>
    <property name="Wait Time" value="0"/>
   </properties>
   <point/>
  </object>
  <object id="66" name="Waypoint 1" type="Waypoint" x="464" y="552">
   <properties>
    <property name="Direction" value="Down Left"/>
    <property name="Next Waypoint 1" type="object" value="67"/>
    <property name="Wait Time" value="0"/>
   </properties>
   <point/>
  </object>
  <object id="67" name="Waypoint 1" type="Waypoint" x="264" y="552">
   <properties>
    <property name="Direction" value="Down Left"/>
    <property name="Next Waypoint 1" type="object" value="64"/>
    <property name="Wait Time" value="0"/>
   </properties>
   <point/>
  </object>
  <object id="68" name="Freya" type="NPC" x="323" y="913">
   <properties>
    <property name="Asset Name" value="normal-navi-bn4_green"/>
    <property name="Dialogue Type" value="first"/>
    <property name="Direction" value="Down Left"/>
    <property name="Next Waypoint 1" type="object" value="69"/>
    <property name="Text 1" value="Pizza? No... Maybe tacos..."/>
    <property name="Wait Time" value="0"/>
   </properties>
   <point/>
  </object>
  <object id="69" name="Waypoint 1" type="Waypoint" x="320" y="752">
   <properties>
    <property name="Direction" value="Down Left"/>
    <property name="Next Waypoint 1" type="object" value="68"/>
    <property name="Wait Time" value="0"/>
   </properties>
   <point/>
  </object>
  <object id="70" name="Ball" type="NPC" x="366.5" y="877.5">
   <properties>
    <property name="Asset Name" value="normal-navi-bn4_red"/>
    <property name="Date" value="* * 10 * * *"/>
    <property name="Dialogue Type" value="before"/>
    <property name="Direction" value="Up Right"/>
    <property name="Text 1" value="Hm.. I should go score some new chips..."/>
    <property name="Text 2" value="Why cant I find the new store?"/>
    <property name="Wait Time" value="2"/>
   </properties>
   <point/>
  </object>
  <object id="71" name="Chief" type="NPC" x="360" y="528">
   <properties>
    <property name="Asset Name" value="male-navi-exe6_teal"/>
    <property name="Date" value="* * 5 * * *"/>
    <property name="Dialogue Type" value="before"/>
    <property name="Direction" value="Down Left"/>
    <property name="Text 1" value="I wonder how they got this in here?"/>
    <property name="Text 2" value="Do you think someone is always watching you beyond what your naked eyes are allowed to see?"/>
    <property name="Wait Time" value="2"/>
   </properties>
   <point/>
  </object>
  <object id="80" name="Gen" type="NPC" x="402" y="530">
   <properties>
    <property name="Asset Name" value="normal-navi-bn4_green"/>
    <property name="Dialogue Type" value="first"/>
    <property name="Direction" value="Down Right"/>
    <property name="Text 1" value="I herd they made a new store, I should be their first customer!"/>
    <property name="Wait Time" value="2"/>
   </properties>
   <point/>
  </object>
  <object id="84" name="Tik" type="NPC" x="400" y="448">
   <properties>
    <property name="Asset Name" value="normal-navi-bn4_red"/>
    <property name="Dialogue Type" value="first"/>
    <property name="Direction" value="Up Right"/>
    <property name="Next Waypoint 1" type="object" value="85"/>
    <property name="Text 1" value="Excuse me!"/>
    <property name="Wait Time" value="0"/>
   </properties>
   <point/>
  </object>
  <object id="85" name="Waypoint 0" type="Waypoint" x="400" y="384">
   <properties>
    <property name="Direction" value="Down Left"/>
    <property name="Next Waypoint 1" type="object" value="86"/>
    <property name="Next Waypoint 2" type="object" value="84"/>
    <property name="Wait Time" value="0"/>
    <property name="Waypoint Type" value="random"/>
   </properties>
   <point/>
  </object>
  <object id="86" name="Waypoint 1" type="Waypoint" x="400" y="320">
   <properties>
    <property name="Direction" value="Down Left"/>
    <property name="Next Waypoint 2" type="object" value="84"/>
    <property name="Wait Time" value="3"/>
   </properties>
   <point/>
  </object>
 </objectgroup>
</map>
