<?xml version="1.0" encoding="UTF-8"?>
<map version="1.10" tiledversion="1.11.2" orientation="isometric" renderorder="right-down" width="20" height="35" tilewidth="64" tileheight="32" infinite="0" nextlayerid="3" nextobjectid="31">
 <properties>
  <property name="Background" value="custom"/>
  <property name="Background Animation" value="/server/assets/custom/backgrounds/crimsonhp/SchoolBG.animation"/>
  <property name="Background Texture" value="/server/assets/custom/backgrounds/crimsonhp/schoolstuff.png"/>
  <property name="Background Vel X" value="0.3"/>
  <property name="Background Vel Y" value="0.3"/>
  <property name="Name" value="SchoolServer"/>
  <property name="Song" value="/server/assets/music/BN2 Internet.ogg"/>
 </properties>
 <tileset firstgid="1" source="../assets/tiles/portpanels.tsx"/>
 <tileset firstgid="9" source="../assets/tiles/Quadragon Warp.tsx"/>
 <tileset firstgid="21" source="../assets/tiles/Blocker.tsx"/>
 <tileset firstgid="22" source="../assets/tiles/BookShelfsV3.tsx"/>
 <tileset firstgid="28" source="../assets/tiles/tiny_desks.tsx"/>
 <tileset firstgid="30" source="../assets/tiles/BlackBoard4.5.tsx"/>
 <layer id="1" name="Tile Layer 1" width="20" height="35">
  <data encoding="csv">
0,0,0,0,0,0,0,0,0,0,0,0,0,0,0,0,0,0,0,0,
0,0,0,0,0,0,0,0,7,7,7,0,0,0,0,0,0,0,0,0,
0,0,0,7,7,7,7,7,7,7,7,0,0,0,0,0,0,0,0,0,
0,7,7,7,0,0,0,0,7,7,7,0,0,0,0,0,0,0,0,0,
0,7,0,0,0,0,0,0,0,0,0,0,0,0,0,0,0,0,0,0,
0,7,0,0,0,0,0,0,0,0,0,0,0,0,7,7,7,7,7,0,
0,7,0,0,0,7,7,7,0,0,0,0,0,0,7,7,7,7,7,0,
0,7,0,7,7,7,7,7,0,0,0,0,0,0,7,7,7,7,7,0,
0,7,0,7,0,7,7,7,0,0,0,0,0,0,7,7,7,7,7,0,
0,7,0,7,0,0,0,0,0,0,0,0,0,0,7,7,7,7,7,0,
0,7,0,7,0,0,0,0,0,0,0,0,0,0,0,0,7,0,0,0,
0,7,0,7,0,0,0,0,0,0,0,0,0,0,0,0,7,0,0,0,
0,7,0,7,0,0,0,0,0,0,0,0,0,0,0,7,7,7,0,0,
0,7,0,7,0,0,0,0,0,0,0,0,0,0,0,7,7,7,0,0,
0,7,0,7,0,0,7,7,7,7,7,0,0,0,0,7,7,7,0,0,
0,7,0,7,0,0,7,7,7,7,7,0,0,0,0,0,0,0,0,0,
0,7,7,7,0,0,7,7,7,7,7,0,0,0,0,7,7,7,0,0,
0,7,7,7,0,0,7,7,7,7,7,0,0,0,0,7,7,7,0,0,
0,7,7,7,0,0,7,7,7,7,7,0,0,0,0,7,7,7,0,0,
0,0,7,0,0,0,7,7,7,7,7,7,7,0,0,0,7,0,0,0,
0,0,7,7,7,0,7,7,7,7,7,0,7,0,0,0,7,7,0,0,
0,0,0,0,7,0,0,0,0,0,0,0,7,7,7,0,0,7,0,0,
0,0,0,0,7,0,0,0,0,0,0,0,0,0,7,0,0,7,0,0,
0,0,0,0,7,0,0,0,0,0,0,0,0,0,7,0,0,7,0,0,
0,7,7,7,7,7,0,0,0,0,0,0,0,0,7,0,0,7,7,0,
0,7,7,7,7,7,0,0,0,0,0,0,0,0,7,0,0,0,7,0,
0,7,7,7,7,7,0,0,0,0,7,7,7,7,7,7,7,0,7,0,
0,7,7,7,7,7,0,0,0,0,7,7,7,7,7,7,7,0,7,0,
0,7,7,7,7,7,0,0,0,0,7,7,7,7,7,7,7,7,7,0,
0,0,0,0,7,0,0,7,7,7,7,7,7,7,7,7,7,0,0,0,
0,0,0,0,7,0,0,7,0,0,7,7,7,7,7,7,7,0,0,0,
0,0,0,0,7,7,7,7,0,0,0,0,0,7,0,0,0,0,0,0,
0,0,0,0,0,0,0,0,0,0,0,0,0,7,0,0,0,7,7,7,
0,0,0,0,0,0,0,0,0,0,0,0,0,7,7,7,7,7,7,7,
0,0,0,0,0,0,0,0,0,0,0,0,0,0,0,0,0,7,7,7
</data>
 </layer>
 <objectgroup id="2" name="Object Layer 1">
  <object id="1" name="port1" type="Custom Warp" gid="15" x="584" y="1064" width="64" height="36">
   <properties>
    <property name="Direction" value="Up Right"/>
    <property name="Target Area" value="porttown1"/>
    <property name="Target Object" value="89"/>
   </properties>
  </object>
  <object id="2" name="Kane" type="NPC" x="432" y="976">
   <properties>
    <property name="Asset Name" value="male-navi-exe6_teal"/>
    <property name="Date" value="* * 10 * * *"/>
    <property name="Dialogue Type" value="before"/>
    <property name="Direction" value="Up Right"/>
    <property name="Text 1" value="Hey, you a student?"/>
    <property name="Text 2" value="School is a wonderful place to learn!"/>
    <property name="Wait Time" value="2"/>
   </properties>
   <point/>
  </object>
  <object id="3" gid="21" x="144" y="752" width="44" height="34"/>
  <object id="4" gid="22" x="391" y="816" width="61" height="100">
   <properties>
    <property name="Flavor" value="That sure is alot of books."/>
   </properties>
  </object>
  <object id="5" gid="25" x="368" y="839" width="61" height="100">
   <properties>
    <property name="Flavor" value="That sure is alot of books."/>
   </properties>
  </object>
  <object id="12" gid="22" x="99.3052" y="748.886" width="61" height="100">
   <properties>
    <property name="Flavor" value="That sure is alot of books."/>
   </properties>
  </object>
  <object id="13" gid="25" x="76.3052" y="771.886" width="61" height="100">
   <properties>
    <property name="Flavor" value="That sure is alot of books."/>
   </properties>
  </object>
  <object id="14" gid="29" x="304" y="624" width="32" height="32"/>
  <object id="15" gid="28" x="272" y="624" width="32" height="32"/>
  <object id="16" gid="28" x="272" y="624" width="32" height="32"/>
  <object id="17" gid="29" x="240" y="624" width="32" height="32"/>
  <object id="18" gid="28" x="208" y="624" width="32" height="32"/>
  <object id="24" gid="29" x="304" y="560" width="32" height="32"/>
  <object id="25" gid="29" x="240" y="560" width="32" height="32"/>
  <object id="26" gid="28" x="272" y="560" width="32" height="32"/>
  <object id="27" gid="28" x="208" y="560" width="32" height="32"/>
  <object id="29" gid="30" x="194.766" y="448.31" width="176" height="153">
   <properties>
    <property name="Flavor" value="Thats alot of... What even is this?"/>
   </properties>
  </object>
  <object id="30" name="La" type="NPC" x="364.295" y="878.557">
   <properties>
    <property name="Asset Name" value="female-navi-exe6_yellow"/>
    <property name="Dialogue Type" value="first"/>
    <property name="Direction" value="Down Right"/>
    <property name="Text 1" value="Hello!"/>
    <property name="Wait Time" value="2"/>
   </properties>
   <point/>
  </object>
 </objectgroup>
</map>
