<?xml version="1.0" encoding="UTF-8"?>
<map version="1.10" tiledversion="1.11.2" orientation="isometric" renderorder="right-down" width="20" height="15" tilewidth="64" tileheight="32" infinite="0" nextlayerid="3" nextobjectid="24">
 <properties>
  <property name="Background" value="custom"/>
  <property name="Background Animation" value="/server/assets/custom/backgrounds/crimsonhp/port.animation"/>
  <property name="Background Texture" value="/server/assets/custom/backgrounds/Mall/Vanilla.png"/>
  <property name="Background Vel X" value="0"/>
  <property name="Background Vel Y" value="0"/>
  <property name="Name" value="Barista HP"/>
  <property name="Song" value="/server/assets/music/BN2 Internet.ogg"/>
 </properties>
 <tileset firstgid="1" source="../assets/tiles/portpanels.tsx"/>
 <tileset firstgid="9" source="../assets/tiles/Quadragon Warp.tsx"/>
 <tileset firstgid="21" source="../assets/tiles/ZeroAccountTileset.tsx"/>
 <tileset firstgid="55" source="../assets/tiles/Barista Desk.tsx"/>
 <tileset firstgid="56" source="../assets/tiles/Coffee Cup.tsx"/>
 <tileset firstgid="57" source="../assets/tiles/Barista Desk2.tsx"/>
 <tileset firstgid="59" source="../assets/tiles/Barista Desk5.tsx"/>
 <tileset firstgid="61" source="../assets/tiles/Stool.tsx"/>
 <tileset firstgid="62" source="../assets/tiles/Coffee carafe.tsx"/>
 <tileset firstgid="63" source="../assets/tiles/Register.tsx"/>
 <layer id="1" name="Tile Layer 1" width="20" height="15">
  <data encoding="csv">
0,0,0,0,0,0,0,0,0,0,0,0,0,0,0,0,0,0,0,0,
0,0,0,0,40,40,40,40,40,40,40,40,40,40,40,40,0,0,0,0,
0,0,0,0,40,40,40,40,40,40,40,40,40,40,40,40,0,0,0,0,
0,0,0,0,40,40,40,40,40,40,40,40,40,40,40,40,0,0,0,0,
0,0,0,0,40,40,40,40,40,40,40,40,40,40,40,40,0,0,0,0,
0,0,0,0,40,40,40,40,40,40,40,40,40,40,40,40,0,0,0,0,
0,0,0,0,40,40,40,40,40,40,40,40,40,40,40,40,0,0,0,0,
0,0,0,0,40,40,40,40,40,40,40,40,40,40,40,40,0,0,0,0,
0,0,0,0,40,40,40,40,40,40,40,40,40,40,40,40,0,0,0,0,
0,0,0,0,40,40,40,40,40,40,40,40,40,40,40,40,0,0,0,0,
0,0,0,0,40,40,40,40,40,40,40,40,40,40,40,40,0,0,0,0,
0,0,0,0,40,40,40,40,40,40,40,40,40,40,40,40,0,0,0,0,
0,0,0,0,40,40,40,40,40,40,40,40,40,40,40,40,0,0,0,0,
0,0,0,0,40,40,40,40,40,40,40,40,40,40,40,40,0,0,0,0,
0,0,0,0,0,0,0,0,0,0,0,0,0,0,0,0,0,0,0,0
</data>
 </layer>
 <objectgroup id="2" name="Object Layer 1">
  <object id="1" name="Vanilla's Exit" type="Custom Warp" gid="9" x="320" y="352" width="64" height="36">
   <properties>
    <property name="Direction" value="Up Right"/>
    <property name="Target Area" value="Mall2"/>
    <property name="Target Object" value="5"/>
   </properties>
  </object>
  <object id="4" gid="56" x="305" y="89" width="7" height="7"/>
  <object id="7" gid="59" x="248" y="82.9998" width="58" height="76">
   <properties>
    <property name="Interact Relay" type="object" value="17"/>
   </properties>
  </object>
  <object id="8" gid="60" x="274.994" y="56" width="58" height="76">
   <properties>
    <property name="Interact Relay" type="object" value="17"/>
   </properties>
  </object>
  <object id="9" gid="61" x="256" y="120" width="12" height="22"/>
  <object id="10" gid="61" x="272" y="120" width="12" height="22"/>
  <object id="11" gid="61" x="312" y="120" width="12" height="22"/>
  <object id="12" gid="61" x="328" y="120" width="12" height="22"/>
  <object id="13" gid="61" x="336" y="104" width="12" height="22"/>
  <object id="14" gid="61" x="336" y="88" width="12" height="22"/>
  <object id="15" gid="61" x="232" y="96" width="12" height="22"/>
  <object id="16" gid="61" x="232" y="80" width="12" height="22"/>
  <object id="17" name="Prog-234" type="NPC" x="283.5" y="80">
   <properties>
    <property name="Asset Name" value="prog"/>
    <property name="Dialogue Type" value="first"/>
    <property name="Direction" value="Down Left"/>
    <property name="Text 1" value="HELLO!"/>
    <property name="Wait Time" value="2"/>
   </properties>
   <point/>
  </object>
  <object id="18" name="Mik" type="NPC" x="224" y="96">
   <properties>
    <property name="Asset Name" value="normal-navi-bn4_brown"/>
    <property name="Date" value="* * 8 * * *"/>
    <property name="Dialogue Type" value="before"/>
    <property name="Direction" value="Up Left"/>
    <property name="Text 1" value="I dont think that is the real owner..."/>
    <property name="Text 2" value="hm.."/>
    <property name="Wait Time" value="2"/>
   </properties>
   <point/>
  </object>
  <object id="20" name="Dream" type="NPC" x="240" y="152">
   <properties>
    <property name="Asset Name" value="female-navi-exe6_yellow"/>
    <property name="Dialogue Type" value="first"/>
    <property name="Direction" value="Down Right"/>
    <property name="Text 1" value="I herd from a heel navi that somewhere in the blocks undernet that some wood navi is potting to take over sci-lab! What's one lone navi gonna do? Ask them to open up?"/>
    <property name="Wait Time" value="2"/>
   </properties>
   <point/>
  </object>
  <object id="21" gid="62" x="312" y="108" width="25" height="25"/>
  <object id="22" gid="2147483711" x="260.5" y="85.5" width="23" height="25"/>
  <object id="23" name="Offical-???" type="NPC" x="335" y="157">
   <properties>
    <property name="Asset Name" value="official-navi-exe4_orange"/>
    <property name="Dialogue Type" value="first"/>
    <property name="Direction" value="Up Right"/>
    <property name="Text 1" value="This place always hit's the spot, its close by, cheap and friendly customer service!"/>
    <property name="Wait Time" value="0"/>
   </properties>
   <point/>
  </object>
 </objectgroup>
</map>
